svgs/sharp-regular/mug-marshmallows.svg

<svg xmlns="http://www.w3.org/2000/svg" viewBox="0 0 512 512"><!--! Font Awesome Pro 6.6.0 by @fontawesome - https://fontawesome.com License - https://fontawesome.com/license (Commercial License) Copyright 2024 Fonticons, Inc. --><path d="M226.7 32l-73.4 73.4L130.7 128 32 128l0-96 194.7 0zM176 128l96-96 96 96-192 0zm-24 80l0 56 0 24-48 0 0-24 0-56-56 0 0 224 288 0 0-224-184 0zM0 160l48 0 288 0 16 0 32 0 16 0c61.9 0 112 50.1 112 112s-50.1 112-112 112l-16 0 0 48 0 48-48 0L48 480 0 480l0-48L0 208l0-48zM384 336l16 0c35.3 0 64-28.7 64-64s-28.7-64-64-64l-16 0 0 128z"/></svg>

<svg xmlns="http://www.w3.org/2000/svg" viewBox="0 0 512 512"><!--! Font Awesome Pro 6.4.2 by @fontawesome - https://fontawesome.com License - https://fontawesome.com/license (Commercial License) Copyright 2023 Fonticons, Inc. --><path d="M226.7 32l-73.4 73.4L130.7 128H32V32H226.7zM176 128l96-96 96 96H176zm-24 80v56 24H104V264 208H48V432H336V208H152zM0 160H48 336h16 32 16c61.9 0 112 50.1 112 112s-50.1 112-112 112H384v48 48H336 48 0V432 208 160zM384 336h16c35.3 0 64-28.7 64-64s-28.7-64-64-64H384V336z"/></svg>
